X: 12000
T: Eoin's
R: polka
M: 2/4
K: Dmajor
|D>E FA|dc B2-|Bd AF|G2 FG|
AD F/G/A|dc G2-|GB AF|EF/E/ DB|
AD F/G/A|dc B2-|Bd AF|G2 FG|
AD F/G/A|dc G2-|GB AF|EF/E/ D2||
d>e fd|cd B2-|Bd Ad|BA GF|
d>e fd|cd BA|BA B/c/d|ea fe|
d>e fd|cd B2-|Bd Ad|BA ef/g/|
af ge|fd G2-|GB AF|EF/E/ D2|

